X: 134
T: Xiu hebao
%%abc-version 2.0
%%abcx-abcm2ps-target-version 5.9.1 (29 Sep 2008)
%%abc-creator hum2abc beta
%%abcx-conversion-date 2013/10/02 07:52:29
%%abc-edited-by Helmut Schaffrath
%%humdrum-veritas 474536009
%%humdrum-veritas-data 1313734760
%%continueall 1
%%barnumbers 0
L: 1/8
M: 4/4
K: D
B> a f eB2B f [I:setbarnb 1]| 
e2f ed2B2 | 
B2e ee2e B | 
A> B G FE4 | 
B2B2e> a e d | 
a c B A G z G E | 
de2A B d A F | 
E8 |]  



